X: 12226
T: Fair Maids Of Ireland, The
R: polka
M: 2/4
K: Adorian
AB cd|ed d2|ea ag|ed d2|
eg de|c2 cA|GE cE|ED D2:|
|:A2 AG|AB cA|GE cE|GE cE|
A2 AG|AB cA|GE cE|ED D2:|

